src/16/actions/im-google.svg

<svg xmlns="http://www.w3.org/2000/svg" width="16" height="16" viewBox="0 0 16 16">
 <defs>
  <style id="current-color-scheme" type="text/css">
   .ColorScheme-Text { color:#5d656b; } .ColorScheme-Highlight { color:#5294e2; }
  </style>
 </defs>
 <path style="fill:currentColor" class="ColorScheme-Text" d="M 8.7792969 1 C 8.2856869 1 7.7521813 1.0629238 7.1757812 1.1835938 C 6.6106013 1.3066338 6.0681344 1.5817456 5.5527344 2.0097656 C 5.1658944 2.3561556 4.8798 2.74778 4.6875 3.1875 C 4.49519 3.61553 4.3964844 4.0465894 4.3964844 4.4746094 C 4.3964844 4.8297394 4.4626831 5.1839025 4.5957031 5.5390625 C 4.7265031 5.8831225 4.918645 6.1878244 5.171875 6.4589844 C 5.425115 6.7278144 5.7378981 6.9482806 6.1113281 7.1191406 C 6.4825081 7.2783306 6.910455 7.359375 7.390625 7.359375 L 7.6796875 7.359375 C 7.7757875 7.345375 7.8726 7.3320125 7.96875 7.3203125 C 7.92065 7.4293625 7.8786369 7.5409637 7.8417969 7.6523438 C 7.8065969 7.7503437 7.7890625 7.8779094 7.7890625 8.0371094 C 7.7890625 8.3199294 7.8421919 8.5560231 7.9511719 8.7519531 C 8.0713619 8.9362231 8.197315 9.1142963 8.328125 9.2851562 C 8.125195 9.2991562 7.8846919 9.3171437 7.6074219 9.3398438 C 7.3301419 9.3649437 7.0373763 9.4094631 6.7226562 9.4707031 C 6.4101562 9.5319031 6.0926412 9.6110144 5.7695312 9.7089844 C 5.4570312 9.8186144 5.1620256 9.9599994 4.8847656 10.130859 C 4.3559256 10.449839 3.9953213 10.817435 3.8007812 11.234375 C 3.5978513 11.662395 3.4960938 12.043027 3.4960938 12.373047 C 3.4960938 12.714767 3.5736556 13.040723 3.7285156 13.345703 C 3.8855956 13.664683 4.1258119 13.945703 4.4511719 14.189453 C 4.7742719 14.436703 5.1799262 14.633517 5.6601562 14.779297 C 6.1532163 14.927417 6.7223469 15 7.3730469 15 C 8.1416869 15 8.8223094 14.89451 9.4121094 14.6875 C 10.013049 14.49215 10.512656 14.226544 10.910156 13.896484 C 11.305386 13.577504 11.605387 13.211862 11.810547 12.794922 C 12.013467 12.380312 12.117188 11.957317 12.117188 11.529297 C 12.117188 11.210327 12.075194 10.929674 11.990234 10.683594 C 11.907534 10.439834 11.790714 10.219368 11.646484 10.023438 C 11.515674 9.8274975 11.352466 9.6415531 11.160156 9.4707031 C 10.981276 9.2998431 10.793872 9.1278912 10.601562 8.9570312 L 9.953125 8.4414062 C 9.857025 8.3569062 9.7535413 8.2598175 9.6445312 8.1484375 C 9.5377613 8.0277275 9.4824219 7.8613169 9.4824219 7.6542969 C 9.4824219 7.4443669 9.5377413 7.2727919 9.6445312 7.1386719 C 9.7535413 7.0045419 9.8680912 6.8746163 9.9882812 6.7539062 C 10.180581 6.6057862 10.367995 6.4521587 10.546875 6.2929688 C 10.727995 6.1221087 10.888973 5.9381175 11.033203 5.7421875 C 11.177433 5.5351675 11.294223 5.3020919 11.376953 5.0449219 C 11.462453 4.7877619 11.503906 4.4882044 11.503906 4.1464844 C 11.503906 3.8024244 11.455595 3.4957694 11.359375 3.2246094 C 11.263175 2.9557794 11.148675 2.7252369 11.015625 2.5292969 C 10.884825 2.3216969 10.745783 2.1477919 10.601562 2.0136719 C 10.457342 1.8678819 10.329436 1.7523156 10.222656 1.6660156 L 10.222656 1.6601562 L 11.341797 1.6601562 L 12.496094 1 L 8.7792969 1 z M 7.6445312 1.6074219 L 7.6464844 1.6074219 C 8.0176844 1.6074219 8.3418706 1.7229881 8.6191406 1.9550781 C 8.9075906 2.1760881 9.1475437 2.4567313 9.3398438 2.8007812 C 9.5315938 3.1425012 9.6753344 3.5104737 9.7714844 3.9023438 C 9.8676844 4.2936237 9.9160156 4.654315 9.9160156 4.984375 C 9.9160156 5.156985 9.89185 5.3717463 9.84375 5.6289062 C 9.79575 5.8860763 9.6677737 6.1191519 9.4648438 6.3261719 C 9.3206138 6.4742919 9.13321 6.5953894 8.90625 6.6933594 C 8.6915 6.7908594 8.4702275 6.8413169 8.2421875 6.8417969 L 8.2382812 6.8417969 C 7.8550712 6.8412069 7.5200419 6.7297587 7.2324219 6.5117188 C 6.9551519 6.2796288 6.7215969 5.9960756 6.5292969 5.6660156 C 6.3481769 5.3359556 6.2094312 4.9797594 6.1132812 4.5996094 C 6.0277812 4.2188194 5.9863281 3.8772156 5.9863281 3.5722656 C 5.9863281 3.3267556 6.0105937 3.0875587 6.0585938 2.8554688 C 6.1172937 2.6227988 6.2260094 2.4088206 6.3808594 2.2128906 C 6.5250894 2.0280306 6.7122063 1.8828644 6.9414062 1.7714844 C 7.1683762 1.6624344 7.4041512 1.6074219 7.6445312 1.6074219 z M 8.2792969 9.796875 L 8.7460938 9.796875 C 8.8070937 9.796875 8.8712494 9.8052063 8.9433594 9.8164062 C 9.2798894 10.062486 9.574895 10.280623 9.828125 10.476562 C 10.081365 10.672493 10.286279 10.864355 10.443359 11.046875 C 10.598219 11.231155 10.713046 11.415136 10.785156 11.597656 C 10.868456 11.793596 10.912109 12.008144 10.912109 12.240234 L 10.914062 12.240234 C 10.914062 12.816374 10.684676 13.287497 10.228516 13.654297 C 9.7829856 14.035087 9.1268656 14.224609 8.2597656 14.224609 C 7.2859556 14.224609 6.5098938 14.016559 5.9335938 13.599609 C 5.3678638 13.182669 5.0859375 12.645115 5.0859375 11.984375 C 5.0859375 11.651985 5.145455 11.379213 5.265625 11.158203 C 5.399225 10.937193 5.5485269 10.753212 5.7167969 10.607422 C 5.8845069 10.459302 6.0543862 10.342362 6.2226562 10.257812 C 6.4037662 10.182613 6.5405588 10.128537 6.6367188 10.091797 C 6.8284488 10.030597 7.0272619 9.9755544 7.2324219 9.9277344 C 7.4353519 9.8892344 7.6274738 9.8590844 7.8085938 9.8339844 C 7.9897237 9.8222844 8.1462469 9.808575 8.2792969 9.796875 z"/>
</svg>

<svg xmlns="http://www.w3.org/2000/svg" width="16" height="16"><defs><style id="current-color-scheme" type="text/css"></style></defs><path d="M8.78 1c-.494 0-1.028.063-1.604.184-.565.123-1.108.398-1.623.826a3.396 3.396 0 0 0-.865 1.178c-.193.428-.292.859-.292 1.287 0 .355.067.709.2 1.064.13.344.323.649.576.92.253.269.566.49.94.66.37.16.798.24 1.279.24h.289c.096-.014.193-.027.289-.039-.048.11-.09.221-.127.332a1.159 1.159 0 0 0-.053.385c0 .283.053.519.162.715.12.184.246.362.377.533-.203.014-.443.032-.72.055a9.725 9.725 0 0 0-1.838.37 4.56 4.56 0 0 0-.885.42c-.53.32-.89.687-1.084 1.104-.203.428-.305.809-.305 1.139 0 .342.078.668.233.973.157.319.397.6.722.843.323.248.729.445 1.21.59.492.148 1.061.221 1.712.221.769 0 1.45-.105 2.04-.313.6-.195 1.1-.46 1.497-.79.395-.32.695-.685.9-1.102.203-.415.307-.838.307-1.266 0-.319-.042-.6-.127-.845a2.423 2.423 0 0 0-.344-.66 2.89 2.89 0 0 0-.486-.553c-.179-.171-.366-.343-.558-.514l-.649-.516a5.68 5.68 0 0 1-.308-.293c-.107-.12-.163-.287-.163-.494 0-.21.056-.381.163-.515.109-.134.223-.264.343-.385.193-.148.38-.302.559-.461.181-.17.342-.355.486-.55.144-.208.261-.44.344-.698.085-.257.127-.557.127-.899 0-.344-.048-.65-.145-.921-.096-.27-.21-.5-.343-.696a2.584 2.584 0 0 0-.414-.515 4.716 4.716 0 0 0-.38-.348V1.66h1.12L12.496 1H8.78zm-1.135.607h.001c.372 0 .696.116.973.348.289.221.529.502.72.846.193.342.336.71.432 1.101.097.392.145.752.145 1.082 0 .173-.024.388-.072.645a1.34 1.34 0 0 1-.38.697c-.143.148-.33.27-.558.367a1.6 1.6 0 0 1-.664.149h-.004c-.383 0-.718-.112-1.006-.33a3.174 3.174 0 0 1-.703-.846A4.504 4.504 0 0 1 6.113 4.6a4.724 4.724 0 0 1-.127-1.028c0-.245.025-.484.073-.717a1.7 1.7 0 0 1 .322-.642c.144-.185.331-.33.56-.442a1.61 1.61 0 0 1 .704-.164zm.634 8.19h.467c.061 0 .125.008.197.02.337.245.632.464.885.66.253.195.458.387.615.57.155.184.27.368.342.55.083.197.127.411.127.643h.002c0 .576-.23 1.047-.685 1.414-.446.381-1.102.57-1.97.57-.973 0-1.75-.207-2.325-.624-.566-.417-.848-.955-.848-1.616 0-.332.06-.605.18-.826a2.4 2.4 0 0 1 .957-.9c.18-.075.318-.13.414-.166a7.73 7.73 0 0 1 .595-.164c.203-.039.395-.069.577-.094.18-.012.337-.025.47-.037z" fill="currentColor" color="#5d656b"/></svg>
